!!!COM: Corelli, Arcangelo
!!!OTL: Sonate a tre [in b]
!!!XEN: Trio Sonata Opus 1, No. 6
!!!OPS: Opus 1
!!!ONM: No. 6
!!!OMV: Movement 4.
!!!YEC: Copyright 1994, Center for Computer Assisted Research in the Humanities
!!!YEM: Rights to all derivative electronic formats reserved.
!!!YEM: Refer to licensing agreement for further details.
!! For the following instrumentation: Violino I & II, Violone/Archlute,
!!    and Organo.
!!!ONB1: Source gives first time signature as sign of imperfection 
!!!ONB2: ("common time") preceding 6/8.  
!! Allegro.
**kern	**kern	**kern	**kern
*ICklav	*ICstr	*ICstr	*ICstr
*Iorgan	*Icello	*Ivioln	*Ivioln
*	*Iarchl	*	*
!Organo	!Violone	!Violin 2	!Violin 1
!	! or	!	!
!	!Archlute	!	!
*clefF4	*clefF4	*clefG2	*clefG2
*k[f#c#]	*k[f#c#]	*k[f#c#]	*k[f#c#]
*b:	*b:	*b:	*b:
*M6/8	*M6/8	*M6/8	*M6/8
*MM90	*MM90	*MM90	*MM90
=1-	=1-	=1-	=1-
4.BB/	2.r	2.r	4.b\
4.AA#/	.	.	4.cc#\
=2	=2	=2	=2
4.BB/	2.r	2.r	8dd\L
.	.	.	8cc#\
.	.	.	8b\J
4.FF#/	.	.	8a#\L
.	.	.	8ff#\
.	.	.	8ee\J
=3	=3	=3	=3
4.BB/	2.r	4.r	8dd\L
.	.	.	8cc#\
.	.	.	8b\J
[4.FF#/	.	4.f#/	4.a/
=4	=4	=4	=4
4.FF#/]	2.r	4.g#/	4.b\
4.FF#/	.	8a/L	8cc#\L
.	.	8g#/	8b\
.	.	8f#/J	8a\J
=5	=5	=5	=5
4.C#/	2.r	8e#/L	4.g#/
.	.	8cc#/	.
.	.	8b/J	.
4.FF#/	.	8a/L	4.a/
.	.	8g#/	.
.	.	8f#/J	.
=6	=6	=6	=6
4.BB/	4.BB/	4.dd\	4.ff#\
4.C#/	4.C#/	4.cc#\	4.ee\
=7	=7	=7	=7
8D/L	8D/L	4.b\	4.dd\
8C#/	8C#/	.	.
8BB/J	8BB/J	.	.
8AA#\L	8AA#\L	4.cc#\	4.cc#\
8F#\	8F#\	.	.
8E\J	8E\J	.	.
=8	=8	=8	=8
8D/L	8D/L	4.dd\	4.b\
8C#/	8C#/	.	.
8BB/J	8BB/J	.	.
4.B\	4.B\	8r	[4.gg\
.	.	8ee\L	.
.	.	8dd\J	.
=9	=9	=9	=9
2.A\	2.A\	4.cc#\	8gg\L]
.	.	.	8aa\
.	.	.	8gg\J
.	.	8r	[4.ff#\
.	.	8dd\L	.
.	.	8cc#\J	.
=10	=10	=10	=10
2.G\	2.G\	4.b\	8ff#\L]
.	.	.	8gg\
.	.	.	8ff#\J
.	.	8r	8ee\L
.	.	8b\L	8dd\
.	.	8cc#\J	8ee\J
=11	=11	=11	=11
4.F#\	4.F#\	4.a#/	4.f#/
4.E#\	4.r	4.r	4.g#/
=12	=12	=12	=12
4.F#\	2.r	2.r	8a/L
.	.	.	8g#/
.	.	.	8f#/J
4.C#/	.	.	8e#/L
.	.	.	8cc#/
.	.	.	8b/J
=13	=13	=13	=13
4.F#\	2.r	4.r	8a/L
.	.	.	8g#/
.	.	.	8f#/J
[4.BB/	.	4.b\	4.dd\
=14	=14	=14	=14
4.BB/]	2.r	4.cc#\	4.ee\
4.BB/	.	8dd\L	8ff#\L
.	.	8cc#\	8ee\
.	.	8b\J	8dd\J
=15	=15	=15	=15
4.F#\	2.r	8a#\L	4.cc#\
.	.	8ff#\	.
.	.	8ee\J	.
8BB/	.	8dd\L	4.dd\
8r	.	8cc#\	.
8r	.	8b\J	.
=16	=16	=16	=16
4.F#\	4.F#\	4.ff#\	4.aa\
4.G#\	4.G#\	4.ee#\	4.gg#\
=17	=17	=17	=17
8A\L	8A\L	4.ff#\	4.ff#\
8G#\	8G#\	.	.
8F#\J	8F#\J	.	.
8E#\L	8E#\L	4.gg#\	4.cc#\
8c#\	8c#\	.	.
8B\J	8B\J	.	.
=18	=18	=18	=18
4.A\	4.A\	4.aa\	8ff#\L
.	.	.	8f#\
.	.	.	8ff#\J
4.C#/	4.C#/	4.aa#\	8ee\L
.	.	.	8cc#\
.	.	.	8ee\J
=19	=19	=19	=19
2.BB/	2.BB/	8bb\L	4.dd\
.	.	8b\	.
.	.	8bb\J	.
.	.	8aa\L	4.dd#\
.	.	8ff#\	.
.	.	8aa\J	.
=20	=20	=20	=20
2.E\	2.E\	4.gg\	8ee\L
.	.	.	8e\
.	.	.	8ee\J
.	.	4.gg#\	8dd\L
.	.	.	8b\
.	.	.	8dd\J
=21	=21	=21	=21
2.AA/	2.AA/	8aa\L	4.cc#\
.	.	8a\	.
.	.	8aa\J	.
.	.	8gg\L	4.cc#\
.	.	8ee\	.
.	.	8gg\J	.
=22	=22	=22	=22
2.D\	2.D\	4.ff#\	8dd\L
.	.	.	8d\
.	.	.	8dd\J
.	.	4.ff#\	8cc#\L
.	.	.	8a\
.	.	.	8cc#\J
=23	=23	=23	=23
2.GG/	2.GG/	8gg\L	4.b\
.	.	8g\	.
.	.	8gg\J	.
.	.	8ff#\L	4.dd\
.	.	8dd\	.
.	.	8ff#\J	.
=24	=24	=24	=24
4.AA/	4.AA/	4.ee\	8cc#\L
.	.	.	8b\
.	.	.	8a\J
4.F#\	4.F#\	8r	[4.aa\
.	.	8ff#\L	.
.	.	8ee\J	.
=25	=25	=25	=25
4.BB/	4.BB/	(8dd\L	4.aa\]
.	.	8cc#\)	.
.	.	8b\J	.
4.E\	4.E\	8r	[4.gg\
.	.	8ee\L	.
.	.	8dd\J	.
=26	=26	=26	=26
4.AA/	4.AA/	(8cc#\L	4.gg\]
.	.	8b\)	.
.	.	8a\J	.
4.D\	4.D\	8r	8ff#\L
.	.	8dd\L	8gg\
.	.	8cc#\J	8aa\J
=27	=27	=27	=27
4.GG/	4.GG/	(8b\L	4gg\
.	.	8cc#\)	.
.	.	8dd\J	8ff#\
4.AA/	4.AA/	4dd\	4.ee\
.	.	8cc#\	.
=28	=28	=28	=28
4.D\	4.D\	4.dd\	4.d/
4.C#/	4.r	4.r	4.e/
=29	=29	=29	=29
4.D\	4.D\	4.d/	8f#/L
.	.	.	8e/
.	.	.	8d/J
4.AA/	4.AA/	4.e/	4.c#/
=30	=30	=30	=30
4.D\	4.D\	8f#/L	4.d/
.	.	8e/	.
.	.	8d/J	.
4.AA#/	4.AA#/	4.c#/	4.r
=31	=31	=31	=31
4.BB/	4.BB/	4.d/	4.b\
4.AA#/	4.r	4.r	4.cc#\
=32	=32	=32	=32
4.BB/	2.r	4.b\	8dd\L
.	.	.	8cc#\
.	.	.	8b\J
4.FF#/	.	4.cc#\	4.a#/
=33	=33	=33	=33
4.BB/	4.BB/	8dd\L	4.b\
.	.	8cc#\	.
.	.	8b\J	.
4.C#/	4.C#/	4.a#/	4.ee\
=34	=34	=34	=34
8D/L	8D/L	4.b\	4.dd\
8C#/	8C#/	.	.
8BB/J	8BB/J	.	.
4.AA#/	4.AA#/	4.cc#\	4.cc#\
=35	=35	=35	=35
4.BB/	4.BB/	4.dd\	2.b\
4.G\	4.G\	4.ee\	.
=36	=36	=36	=36
4.F#\	4.F#\	4.ff#\	4.a#/
4.r	4.r	4.r	4.r
=37	=37	=37	=37
4.F#\	2.r	2.r	4.ff#\
4.E#\	.	.	4.gg#\
=38	=38	=38	=38
4.F#\	2.r	4.ff#\	8aa\L
.	.	.	8gg#\
.	.	.	8ff#\J
4.C#/	.	4.gg#\	4.ee#\
=39	=39	=39	=39
4.F#\	4.F#\	8aa\L	4.ff#\
.	.	8gg#\	.
.	.	8ff#\J	.
4.G#\	4.G#\	4.ee#\	4.bb\
=40	=40	=40	=40
8A\L	8A\L	4.ff#\	4.aa\
8G#\	8G#\	.	.
8F#\J	8F#\J	.	.
4.E#\	4.E#\	[4.cc#\	4.gg#\
=41	=41	=41	=41
4.F#\	4.F#\	4.cc#\]	2.ff#\
4.D\	4.D\	4.b\	.
=42	=42	=42	=42
4.C#/	4.C#/	4.cc#\	4.ee#\
4.AA/	4.AA/	4.r	[4.cc#\
=43	=43	=43	=43
4.D\	4.D\	2.f#/	4.cc#\]
4.GG#/	4.GG#/	.	[4.b\
=44	=44	=44	=44
4.C#/	4.C#/	4.e#/	4.b\]
4.FF#/	4.FF#/	[4.f#/	4.a/
=45	=45	=45	=45
2.C#/	2.C#/	4.f#/]	2.g#/
.	.	4.e#/	.
=46	=46	=46	=46
2.F#\	2.F#\	4.f#/	8ff#\L
.	.	.	8cc#\
.	.	.	8a\J
.	.	4.r	8f#\L
.	.	.	8ff#\
.	.	.	8cc#\J
=47	=47	=47	=47
2.BB/	2.BB/	8bb\L	4.dd\
.	.	8ff#\	.
.	.	8dd\J	.
.	.	8b\L	4.dd#\
.	.	8bb\	.
.	.	8ff#\J	.
=48	=48	=48	=48
2.E\	2.E\	4.gg\	8ee\L
.	.	.	8b\
.	.	.	8g\J
.	.	4.gg#\	8e\L
.	.	.	8ee\
.	.	.	8b\J
=49	=49	=49	=49
2.AA/	2.AA/	8aa\L	4.cc#\
.	.	8ee\	.
.	.	8cc#\J	.
.	.	8a\L	4.r
.	.	8aa\	.
.	.	8ee\J	.
=50	=50	=50	=50
2.D\	2.D\	4.ff#\	8ddd\L
.	.	.	8aa\
.	.	.	8ff#\J
.	.	4.aa\	8dd\L
.	.	.	8ddd\
.	.	.	8aa\J
=51	=51	=51	=51
4.G\	4.G\	4.gg\	4.bb\
4.D\	4.D\	4.ff#\	4.aa\
=52	=52	=52	=52
4.G\	4.G\	(8b\L	4gg\
.	.	8cc#\)	.
.	.	8dd\J	8ff#\
4.A\	4.A\	4dd\	4.ee\
.	.	8cc#\	.
=53	=53	=53	=53
4.D\	4.D\	4.dd\	4.dd\
4.D\	4.D\	4.f#/	4.a/
=54	=54	=54	=54
4.GG/	4.GG/	(8B/L	4g/
.	.	8c#/)	.
.	.	8d/J	8f#/
4.AA/	4.AA/	4d/	4.e/
.	.	8c#/	.
=55	=55	=55	=55
4.D\	4.D\	4.d/	4.d/
4.r	4.r	4.r	4.r
=56	=56	=56	=56
4.B\	4.B\	2.r	4.b\
4.A#\	4.A#\	.	4.cc#\
=57	=57	=57	=57
4.B\	4.B\	4.b\	(8dd\L
.	.	.	8cc#\)
.	.	.	8b\J
4.F#\	4.F#\	4.cc#\	4.a#/
=58	=58	=58	=58
4.BB/	4.BB/	(8dd\L	4.b\
.	.	8cc#\)	.
.	.	8b\J	.
4.C#/	4.C#/	4.a#/	4.ee\
=59	=59	=59	=59
8D/L	8D/L	4.b\	4.dd\
8C#/	8C#/	.	.
8BB/J	8BB/J	.	.
4.AA#/	4.AA#/	4.cc#\	4.cc#\
=60	=60	=60	=60
4.BB/	4.BB/	(8dd\L	4.b\
.	.	8cc#\)	.
.	.	8b\J	.
4.E\	4.E\	8r	[4.gg\
.	.	8ee\L	.
.	.	8dd\J	.
=61	=61	=61	=61
4.AA/	4.AA/	(8cc#\L	4.gg\]
.	.	8b\)	.
.	.	8a\J	.
4.D\	4.D\	8r	[4.ff#\
.	.	8dd\L	.
.	.	8cc#\J	.
=62	=62	=62	=62
4.GG/	4.GG/	(8b/L	4.ff#\]
.	.	8a/)	.
.	.	8g/J	.
4.C#/	4.C#/	8r	[4.ee\
.	.	8cc#\L	.
.	.	8b\J	.
=63	=63	=63	=63
4.F#\	4.F#\	(8a#/L	4.ee\]
.	.	8g#/)	.
.	.	8f#/J	.
4.r	4.r	4.b\	4.dd\
=64	=64	=64	=64
4.FF#/	4.FF#/	4.cc#\	4.a#/
4.r	4.r	4.dd\	4.b\
=65	=65	=65	=65
4.F#\	4.F#\	4.a#/	4.cc#\
4.r	4.r	4.b\	(8dd\L
.	.	.	8cc#\)
.	.	.	8b\J
=66	=66	=66	=66
4.FF#/	4.FF#/	4.cc#\	4.a#/
4.r	4.r	(8dd\L	4.b\
.	.	8cc#\)	.
.	.	8b\J	.
=67	=67	=67	=67
4.F#\	4.F#\	4.a#/	4.cc#\
!! Adagio.
*MM70	*MM70	*MM70	*MM70
4.E#\	4.E#\	[4.b\	4.dd\
=68	=68	=68	=68
4.F#\	4.F#\	4.b\]	2.cc#\
4.FF#/	4.FF#/	4.a#/	.
=69	=69	=69	=69
2.BB/	2.BB/	2.b\	2.b\
==	==	==	==
*-	*-	*-	*-
!!!CDT: 1653/2/17/-1713/1/8
!!!OCY: Italia
!!!ODE: Queen Christina Alexandra of Sweden
!!!ODT: 1681//
!!!OPC: Roma; Rome
!!!AGN: trio sonata
!!!AST: baroque, chamber
!!!AMT: compound duple
!!!YOR1: J. Joachim & F. Chrysander (eds.) Les Oeuvre de Arcangelo Corelli
!!!YOR2: London: Augener & Co. 1871
!!!YOY: 1871
!!!AIN: archl cello organ violn
!!!EEV: 1.1
!!!RDT: 1993 August 23
!!!YER: 1994 December 14
!!!EMD: 1996 July 9
!!!YEN: United States of America
!!!EFL: 4/4
!!!ENC: Frances Bennion & Steven Rasmussen
!!!EED: W.B. Hewlett
!!!VTS: 2463223215
